!!!COM: Robert Schumann
!!!CNT: Deutscher
!!!TXO: Deutsche 
!!!OTL: An meinem Herzen, an meiner Brust
!!!OPR: Frauenliebe und Leben
!!!OPS: Opus 42
!!!ONM: No. 7
!!!LYR: Chamisso
!!!ENC: Brian Bice
!!!YOR: Sa2mtliche Lieder, vol. 1, C.F. Peters
!!!ODT: 1840/
!!NB: Vocal melody and text only encoded.
**kern	**silbe
*clefG2	*
*k[f#c#]	*
*M6/8	*
=2	=2
{8a	{An
8a	mei-
8a	-nem
4dd	Her-
8dd	-zen,
=3	=3
8ee	an
8ee	mei-
8cc#	-ner
4.dd}	Brust,}
=4	=4
{8a	{du
8.a	mei-
16a	-ne
4dd	Won-
8dd	-ne,
=5	=5
8ee	du
8.ee	mei-
16cc#	-ne
4dd}	Lust!}
{8dd	{Das
=6	=6
8dd	Glu2ck
8dd	ist
8cc#	die
8b	Lie-
8b	-be,
8b	die
=7	=7
8dd	Lieb'
8dd	ist
8cc#	das
4b}	Glu2ck,}
8r	.
=8	=8
{8b	{ich
8.b	hab's
16b	ge-
4cc#	-sagt
8a	und
=9	=9
8cc#	nehm's
8cc#	nicht
8b	zu-
4a}	-ru2ck.}
{8a	{Hab'
=10	=10
4a	u2-
8a	-ber-
4dd	-schweng-
8dd	-lich
=11	=11
4ee	mich
8cc#	ge-
4.dd}	-scha2tzt,}
=12	=12
{8a	{bin
8a	u2-
8a	-ber-
4dd	-glu2ck-
8dd	-lich
=13	=13
4ee	a-
8ccn	-ber
4.b}	jetzt.}
=14	=14
{8b	{Nur
8b	die
8a	da
4.g	sa2ugt,
=15	=15
8b	nur
8b	die
8a	da
4g}	liebt}
{8g	{das
=16	=16
4g	Kind,
8f#	dem
4e	die
8e	die
=17	=17
4e	Nah-
8e	-rung
(eq	gibt;
4.b)}	|}
=18	=18
{8a	{nur
8a	ei-
8a	-ne
4dd	Mut-
8dd	-ter
=19	=19
4ee	weiss
8cc#	al-
4dd}	-lein,}
{8a	{was
=20	=20
4a	lie-
8a	-ben
4dd	heisst
8dd	und
=21	=21
4ee	glu2ck-
8cc#	-lich
4.dd}	sein.}
=22	=22
{8dd	{O
8.dd	wie
16cc#	be-
4b	-daur;
8b	ich
=23	=23
4dd	doch
8cc#	den
4b}	Mann,}
{8b	{der
=24	=24
4ff#	Mut-
8b	-ter-
(8b	-glu2ck
8cc#)	|
8a	nicht
=25	=25
4cc#	fu2h-
8b	-len
4a}	kann!}
{8a	{Du
=26	=26
4a	lie-
8a	-ber,
4dd	lie-
8dd	-ber
=27	=27
4ee	En-
8cc#	-gel,
4dd}	du,}
{8a	{du
=28	=28
8a	schau-
8a	-est
8a	mich
4dd	an
8dd	und
=29	=29
8.ee	la2-
16ee	-chelst
8cc#	da-
4dd}	-zu!}
{8dd	{An
=30	=30
4dd	mei-
8dd	-nem
8dd	Her-
8dd	-zen,
8dd	an
=31	=31
(8dd	mei-
8ff#)	|
8dd	-ner
(4b	Brust,
8b-)}	|}
=32	=32
{8a	{du
8.a	mei-
16a	-ne
8dd	Won-
8f#	-ne,
8f#	du
=33	=33
[4.bn	mei-
4bn]	|
8a	-ne
=34	=34
4.d}	Lust!}
4r	.
8r	.
*-	*-
